X: 11050
T: Dublin Streets
R: slip jig
M: 9/8
K: Eminor
|:E2F G2A BGE|D2E F2G AFD|E2F G2A BGE|dcB AFD E3:|
e2f g2a bge|fff def afd|e2f g2a bge|fed B^cd e2d|
e2f g2a bge|fff def afd|bag agf gfe|dcB AFD E3||

